X:2204
T:Kindagh rish ny dangeryn jeh'n keayn 
T:The bonny bunch of roses 
C:Traditional
O:Isle of Man
Z:Clague collection
B:Kiaull Vannin #204 
L:1/4
M:2/4 
Q:70 
K:G 
E|A G|A B/c/|d>c|B B|e f|g f/e/|e B|e B| 
e f|g f|e>d|B G|A B/c/|d/c/ B/A/|G E|E|| 

